X:1
T:James Gibb editions
T:Tanto è ver - Lotti
T:#
%%score [ 1 2 3 ]
L:1/8
Q:1/4=90
M:4/4
K:G
V:1 treble nm="Soprano"
V:2 treble nm="Alto"
V:3 treble-8 nm="Tenor"
V:1
"^Tanto è ver che nel verno""^Antonio Lotti\n(1667-1740)" z8 | z8 | z8 | z8 | z8 |[M:4/4] z8 | %6
w: ||||||
 z2 dd d2 dd | e4 d3 d | c2 B2 A4 | G4 z2 z d | GABc defd | (e^c)dd (d2 c2) | d4 z4 | %13
w: Tan- to~~è ver che nel|ver- no è|ca- ro~~il ver-|de, e|sol si sti- ma~~il bel quan- do si|per\- * de, si per\- *|de,|
 z2 z d GAB^c | defd e2 A2 | z8 | z2 BB B2 BB | !courtesy!=c4 B3 B | A2 G2 F4 | E4 z2 z B | %20
w: e sol si sti- ma~~il|bel quan- do si per- de.||Tan- to~~è ver che nel|ver- no è|ca- ro~~il ver-|de, e|
 EFGA BcdB | c4 B4 | z2 B4 AA | B2 GG F2 B2 | z4 z2 e2- | e2 dd e2 cc | B2 E2 z2 d2- | %27
w: sol si sti- ma~~il bel quan- do si|per- de,|quan- do si|per- de, si per- de,|quan\-|* do si per- de, si|per- de, quan\-|
 d2 cc B2 Be | ABcd e2 z2 | z2 A4 ^GG | AE A2- A G2 F | G4 F4 | z2 d4 ^cc | d2 BB A2 D2 | z8 | z8 | %36
w: * do si per- de, e|sol si sti- ma~~il bel,|quan- do si|per- de, quan\- * do si|per- de,|quan- do si|per- de, si per- de.|||
 z2 dd d2 dd | e4 d3 d | c2 B2 A4 | G4 d4- | d2 dd d4 | d2 z d GABc | defd e4 | %43
w: Tan- to~~è ver che nel|ver- no è|ca- ro~~il ver-|de, quan\-|* do si per-|de, e sol si sti- ma~~il|bel quan- do si per-|
 d2 d4 c[Q:1/4=89]c |[Q:1/4=88] d[Q:1/4=87]c[Q:1/4=85] B4[Q:1/4=84] A[Q:1/4=83]G | %45
w: de, quan- do si|per- de, quan- do si|
[Q:1/4=82] (F2[Q:1/4=79] G4[Q:1/4=77] F2) |[Q:1/4=77] G8 |] %47
w: per\- * *|de.|
V:2
 z8 | z8 | z8 | z2 GG G2 GA | B4 A3 A |[M:4/4] G2 F2 E4 | D4 z2 z G | CDEF GABG | (AF)GG (G2 F2) | %9
w: |||Tan- to~è ver che nel|ver- no è|ca- ro~~il ver-|de, e|sol si sti- ma~~il bel quan- do si|per\- * de, si per\- *|
 G4 z4 | z8 | z4 z2 z A | DEFG ABcA | B2 AA G4 | F4 z4 | z8 | z4 z2 z E | A,B,CD EFGE | %18
w: de,||e|sol si sti- ma~~il bel quan- do si|per- de, si per-|de,||e|sol si sti- ma~~il bel quan- do si|
 (F^D)EE (E2 D2) | E4 z4 | z4 z2 z D | A,B,CD EFGE | F4 E4 | z2 E4 ^DD | E2 CC B,2 B,2 | %25
w: per\- * de, si per\- *|de|e|sol si sti- ma~~il bel quan- do si|per- de,|quan- do si|per- de, si per- de,|
 z4 z2 A2- | A2 ^GG A2 =FF | E2 A,2 z4 | z2 z A EF^GA | BBEE D2 D2 | z2 AA A2 AA | B4 A3 A | %32
w: quan\-|* do si per- de, si|per- de,|e sol si sti- ma~~il|bel quan- do si per- de.|Tan- to~~è ver che nel|ver- no è|
 G2 F2 E4 | D2 G4 FF | G2 DG DEFG | ABcA B4 | A4 z2 z B | EFGA BAGF | E2 DE C4 | B,3 G DEFG | %40
w: ca- ro~~il ver-|de, quan- do si|per- de, e sol si sti- ma~~il|bel quan- do si per-|de, e|sol si sti- ma~~il bel quan- do si|per- de, si per-|de, e sol si sti- ma~~il|
 ABcA B4 | A4 z4 | z2 B4 AA | (BA)GB EFGA | D z D4 CC | (C2 B,2 A,4) | B,8 |] %47
w: bel quan- do si per-|de,|quan- do si|per\- * de, e sol si sti- ma~~il|bel quan- do si|per\- * *|de.|
V:3
 z2 dd d2 dd | e4 d3 d | c2 B2 A4 | G4 z2 z d | GABc defd |[M:4/4][K:treble-8] (e^c)dd (d2 c2) | %6
w: Tan- to~~è ver che nel|ver- no è|ca- ro~~il ver-|de, e|sol si sti- ma~~il bel quan- do si|per\- * de, si per\- *|
 d4 z4 | z8 | z4 z2 z d | GABc defd | e4 d4 | z2 AA A2 AA | B4 A3 A | G2 F2 E4 | D3 d AB^cd | %15
w: de,||e|sol si sti- ma~~il bel quan- do si|per- de.|Tan- to~~è ver che nel|ver- no è|ca- ro~~il ver-|de, e sol si sti- ma~~il|
 efge (f^d)ee | (e2 ^d2) e4 | z8 | z4 z2 z B | EFGA BcdB | c4 B4 | z4 z2 e2- | e2 ^dd e2 cc | %23
w: bel quan- do si per\- * de, si|per\- * de,||e|sol si sti- ma~~il bel quan- do si|per- de,|quan\-|* do si per- de, si|
 B2 E2 z4 | z2 A4 ^GG | A2 =FF E4 | E4 z4 | z2 ee e2 ee | =f4 e3 e | d2 c2 B4 | A4 z2 z d | %31
w: per- de|quan- do si|per- de, si per-|de.|Tan- to~~è ver che nel|ver- no è|ca- ro~~il ver-|de, e|
 GABc defd | (e^c)dD GE A2 | D2 z2 z2 z d | GABc d2 d2- | d2 cc dG g2- | g2 ff g2 GG | CDEF GABG | %38
w: sol si sti- ma~~il bel quan- do si|per\- * de, quan- do si per-|de, e|sol si sti- ma~~il bel quan\-|* do si per- de, quan\-|* do si per- de, e|sol si sti- ma~~il bel quan- do si|
 (AF)GG (G2 F2) | G4 z4 | z2 z d GABc | defd e4 | d4 z2 c2- | c2 BB c4 | G4 C2 CC | D8 | G8 |] %47
w: per\- * de, si per\- *|de|e sol si sti- ma~~il|bel quan- do si per-|de, quan\-|* do si per-|de, quan- do si|per-|de.|

